src/pos-icons/video-3d-variant.svg

<svg height="24" viewBox="0 0 24 24" width="24" xmlns="http://www.w3.org/2000/svg"><path d="m14 10v4a.5.5 0 0 1 -.5.5h-1v-5h1a.5.5 0 0 1 .5.5m7-3.5v11l-4-4v3.5a1 1 0 0 1 -1 1h-12a1 1 0 0 1 -1-1v-10a1 1 0 0 1 1-1h12a1 1 0 0 1 1 1v3.5m-7.5-1a1.5 1.5 0 0 0 -1.5-1.5h-3.5v1.5h3.5v1.75h-2.5v1.5h2.5v1.75h-3.5v1.5h3.5a1.5 1.5 0 0 0 1.5-1.5m6-5a1.5 1.5 0 0 0 -1.5-1.5h-3v8h3a1.5 1.5 0 0 0 1.5-1.5"/></svg>

<?xml version="1.0" encoding="UTF-8"?><!DOCTYPE svg PUBLIC "-//W3C//DTD SVG 1.1//EN" "http://www.w3.org/Graphics/SVG/1.1/DTD/svg11.dtd"><svg xmlns="http://www.w3.org/2000/svg" xmlns:xlink="http://www.w3.org/1999/xlink" version="1.1" id="mdi-video-3d-variant" width="24" height="24" viewBox="0 0 24 24"><path d="M14,10V14A0.5,0.5 0 0,1 13.5,14.5H12.5V9.5H13.5A0.5,0.5 0 0,1 14,10M21,6.5V17.5L17,13.5V17A1,1 0 0,1 16,18H4A1,1 0 0,1 3,17V7A1,1 0 0,1 4,6H16A1,1 0 0,1 17,7V10.5M9.5,9.5A1.5,1.5 0 0,0 8,8H4.5V9.5H8V11.25H5.5V12.75H8V14.5H4.5V16H8A1.5,1.5 0 0,0 9.5,14.5M15.5,9.5A1.5,1.5 0 0,0 14,8H11V16H14A1.5,1.5 0 0,0 15.5,14.5" /></svg>
